components/Icon/svg/copy.svg

<svg width="24" height="24" viewBox="0 0 24 24" fill="none" xmlns="http://www.w3.org/2000/svg">
<path fill-rule="evenodd" clip-rule="evenodd" d="M20.7132 4.8H17.7353V1.8C17.7353 0.8076 16.9336 0 15.9485 0H7.01471C6.85628 0 6.705 0.0636 6.59303 0.1752L2.42391 4.3752C2.31194 4.488 2.25 4.6404 2.25 4.8V17.4C2.25 18.3924 3.05166 19.2 4.03676 19.2H7.01471V22.2C7.01471 23.1924 7.81637 24 8.80147 24H20.7132C21.6983 24 22.5 23.1924 22.5 22.2V6.6C22.5 5.6076 21.6983 4.8 20.7132 4.8ZM7.01471 1.44841V4.20001C7.01471 4.53121 6.74788 4.80001 6.41912 4.80001H3.68775L7.01471 1.44841ZM3.44118 17.4C3.44118 17.7312 3.708 18 4.03677 18H7.01471V9.59998C7.01471 9.44038 7.07665 9.28798 7.18862 9.17518L11.3577 4.97518C11.4697 4.86358 11.621 4.79998 11.7794 4.79998H16.5441V1.79998C16.5441 1.46878 16.2773 1.19998 15.9485 1.19998H8.20588V4.19998C8.20588 5.19238 7.40422 5.99998 6.41912 5.99998H3.44118V17.4ZM11.7794 6.24837V8.99998C11.7794 9.33118 11.5126 9.59998 11.1838 9.59998H8.45246L11.7794 6.24837ZM20.7132 22.8C21.042 22.8 21.3088 22.5312 21.3088 22.2V6.6C21.3088 6.2688 21.042 6 20.7132 6H12.9706V9C12.9706 9.9924 12.1689 10.8 11.1838 10.8H8.20588V22.2C8.20588 22.5312 8.47271 22.8 8.80147 22.8H20.7132Z" fill="currentColor"/>
</svg>

<svg xmlns="http://www.w3.org/2000/svg" width="24" height="24" viewBox="0 0 24 24">
  <path fill="currentColor" fill-rule="evenodd" d="M20.713 4.8h-2.978v-3c0-.992-.801-1.8-1.787-1.8H7.015a.598.598 0 0 0-.422.175l-4.17 4.2a.602.602 0 0 0-.173.425v12.6c0 .992.802 1.8 1.787 1.8h2.978v3c0 .992.801 1.8 1.786 1.8h11.912c.985 0 1.787-.808 1.787-1.8V6.6c0-.992-.802-1.8-1.787-1.8ZM7.015 1.448V4.2c0 .331-.267.6-.596.6H3.688l3.327-3.352ZM3.44 17.4c0 .331.267.6.596.6h2.978V9.6c0-.16.062-.312.174-.425l4.169-4.2a.598.598 0 0 1 .421-.175h4.765v-3c0-.331-.267-.6-.596-.6H8.206v3c0 .992-.802 1.8-1.787 1.8H3.441v11.4Zm8.34-11.152V9c0 .331-.266.6-.595.6H8.452l3.327-3.352ZM20.713 22.8a.598.598 0 0 0 .596-.6V6.6c0-.331-.267-.6-.596-.6h-7.742v3c0 .992-.802 1.8-1.787 1.8H8.206v11.4c0 .331.267.6.595.6h11.912Z" />
</svg>
